assets/warrantyBg.svg

<svg xmlns="http://www.w3.org/2000/svg" width="5760" height="1280" fill="none" xmlns:v="https://vecta.io/nano"><path d="M3186 0h2574v1280H3186zM0 0h2477v1280H0z" fill="#ffc049"/><path fill="#ffc856" d="M1920 0h1920v1280H1920z"/><path d="M3840 0h1920v1280H3840zM0 0h1920v1280H0z" fill="#ffc049"/><g stroke="#ffc856" stroke-width="12"><circle cx="2052" cy="242" r="44" style="mix-blend-mode:multiply" opacity=".1"/><circle cx="2102" cy="890" r="23" style="mix-blend-mode:multiply" opacity=".2"/></g><path d="M2585 541L3840 0v1280L2585 541zm-420 .5L1920 0v1279.5l245-738z" style="mix-blend-mode:overlay" opacity=".2" fill="#001e20"/><g style="mix-blend-mode:overlay" opacity=".2" clip-path="url(#A)" fill="#fff"><path d="M3511.15 874.08l1.86-.383c19.8-4.03 37.2-15.847 48.37-32.88 11.2-17.035 15.26-37.908 11.34-58.078-3.9-20.17-15.5-38.004-32.26-49.623s-37.3-16.08-57.17-12.415c-19.88 3.664-37.47 15.16-48.96 31.984-11.48 16.825-15.93 37.618-12.37 57.854s14.84 38.278 31.38 50.2 37 16.76 56.95 13.462c.04-.004.1-.005.14-.01a7.46 7.46 0 0 0 .72-.11zm-74.23-64.147c-2.5-12.152-1.4-24.76 3.17-36.228s12.38-21.284 22.47-28.204 22-10.634 34.2-10.673 24.18 3.6 34.4 10.455c10.2 6.855 18.22 16.62 23 28.06a63.68 63.68 0 0 1 3.86 36.205c-2.27 12.167-8.04 23.355-16.6 32.15s-19.5 14.8-31.45 17.256c-16.02 3.275-32.72-.047-46.4-9.237-13.7-9.2-23.28-23.496-26.65-39.782zm202.86 93.827l-58.75-39.412c9.5-12.276 16.25-26.53 19.75-41.764a109.19 109.19 0 0 0 .52-46.44c-11.98-58.27-68.35-96.093-125.67-84.312-57.3 11.78-94.2 68.772-82.22 127.043 9.3 45.3 45.47 78.25 88.04 85.13l20.06 97.564c1 5.75 8.64 8.08 12.53 3.82l21.5-22.07 28.46 11.8c5.26 2.377 11.36-2.784 10.02-8.45l-8.86-43.076 34.05 22.84c4.72 3.377 11.7-.466 11.46-6.283l-.26-31.146 28.2-12.038c5.35-2.08 6.05-10.14 1.15-13.204zm-231.87-87.865c-10.3-50.14 21.43-99.18 70.75-109.317s97.83 22.4 108.13 72.548-21.43 99.18-70.75 109.317c-49.3 10.137-97.82-22.4-108.13-72.548zm128.58 151.603a7.33 7.33 0 0 0-4.28-.41c-1.43.295-2.74 1.013-3.77 2.065l-15.26 15.664-16.34-79.5a104.62 104.62 0 0 0 43.51-8.943l16.34 79.492-20.2-8.376zm63.56-50.433a7.4 7.4 0 0 0-3.3 2.78c-.8 1.24-1.22 2.7-1.2 4.175l.2 22.105-34.86-23.386-6.9-33.638a105.01 105.01 0 0 0 17.05-13.494l49.06 32.918-20.03 8.54zm-75.9-86.012c5.64 1.847 11.23-4.365 8.9-9.9l-7.97-20.868 12.18-18.513c3.44-4.87-.7-12.217-6.6-11.72l-21.96 1.116-13.65-17.6c-3.52-4.856-11.65-3.184-12.97 2.666l-5.6 21.558-20.62 7.636c-5.6 1.87-6.5 10.247-1.43 13.367l18.5 12.207.9 22.32c.05 6.013 7.62 9.518 12.1 5.596l17.03-14.013 21.18 6.158zm-36.1-13.298l-.46-11.187c-.05-1.205-.38-2.383-.97-3.434a7.54 7.54 0 0 0-2.42-2.603l-9.27-6.118 10.33-3.828a7.35 7.35 0 0 0 2.92-1.98 7.44 7.44 0 0 0 1.67-3.125l2.8-10.805 6.84 8.822a7.54 7.54 0 0 0 2.77 2.21c1.1.502 2.27.732 3.46.672l11-.56-6.1 9.282c-.66 1-1.07 2.147-1.2 3.346a7.76 7.76 0 0 0 .46 3.539l4 10.46-10.62-3.088a7.28 7.28 0 0 0-3.51-.142 7.34 7.34 0 0 0-3.17 1.516l-8.54 7.023z"/></g><defs><clipPath id="A"><path fill="#fff" transform="matrix(.979523 -.201334 .201334 .979523 3303 722.599)" d="M0 0h315.888v321.152H0z"/></clipPath></defs></svg>

<svg width="5760" height="1280" viewBox="0 0 5760 1280" fill="none" xmlns="http://www.w3.org/2000/svg">
<rect x="3186" width="2574" height="1280" fill="#FFC049"/>
<rect width="2477" height="1280" fill="#FFC049"/>
<rect x="1920" width="1920" height="1280" fill="#FFC856"/>
<rect x="3840" width="1920" height="1280" fill="#FFC049"/>
<rect width="1920" height="1280" fill="#FFC049"/>
<g style="mix-blend-mode:multiply" opacity="0.1">
<circle cx="2052" cy="242" r="44" stroke="#FFC856" stroke-width="12"/>
</g>
<g style="mix-blend-mode:multiply" opacity="0.2">
<circle cx="2102" cy="890" r="23" stroke="#FFC856" stroke-width="12"/>
</g>
<g style="mix-blend-mode:overlay" opacity="0.2">
<path d="M2585 541L3840 0V1280L2585 541Z" fill="#001E20"/>
</g>
<g style="mix-blend-mode:overlay" opacity="0.2">
<path d="M2165 541.5L1920 0V1279.5L2165 541.5Z" fill="#001E20"/>
</g>
<g style="mix-blend-mode:overlay" opacity="0.2" clip-path="url(#clip0)">
<path d="M3511.15 874.079L3513.01 873.696C3532.82 869.667 3550.2 857.849 3561.38 840.815C3572.57 823.78 3576.64 802.907 3572.72 782.737C3568.81 762.567 3557.21 744.733 3540.46 733.114C3523.71 721.496 3503.16 717.034 3483.29 720.699C3463.41 724.363 3445.82 735.859 3434.33 752.683C3422.85 769.508 3418.4 790.301 3421.96 810.537C3425.52 830.773 3436.8 848.815 3453.34 860.737C3469.88 872.66 3490.35 877.498 3510.29 874.199C3510.33 874.195 3510.38 874.194 3510.43 874.189C3510.67 874.164 3510.91 874.128 3511.15 874.079ZM3436.92 809.932C3434.42 797.78 3435.53 785.173 3440.09 773.704C3444.65 762.235 3452.47 752.42 3462.56 745.5C3472.65 738.58 3484.55 734.866 3496.76 734.827C3508.97 734.788 3520.94 738.426 3531.16 745.282C3541.37 752.137 3549.38 761.902 3554.16 773.341C3558.94 784.78 3560.29 797.379 3558.02 809.546C3555.75 821.713 3549.98 832.901 3541.43 841.695C3532.88 850.489 3521.93 856.494 3509.98 858.951C3493.96 862.226 3477.26 858.904 3463.57 849.714C3449.87 840.525 3440.29 826.218 3436.92 809.932Z" fill="white"/>
<path d="M3639.78 903.76L3581.03 864.348C3590.54 852.072 3597.28 837.819 3600.78 822.584C3604.28 807.349 3604.46 791.501 3601.3 776.145C3589.32 717.874 3532.95 680.052 3475.63 691.833C3418.32 703.614 3381.43 760.605 3393.41 818.876C3402.72 864.186 3438.88 897.127 3481.45 904.006L3501.51 1001.57C3502.5 1007.32 3510.15 1009.65 3514.04 1005.39L3535.55 983.32L3564.01 995.119C3569.27 997.496 3575.37 992.335 3574.03 986.668L3565.17 943.592L3599.22 966.431C3603.94 969.808 3610.91 965.965 3610.68 960.148L3610.42 929.002L3638.63 916.964C3643.98 914.885 3644.68 906.825 3639.78 903.76ZM3407.91 815.895C3397.61 765.755 3429.34 716.715 3478.66 706.578C3527.98 696.441 3576.49 728.987 3586.79 779.126C3597.1 829.266 3565.36 878.306 3516.04 888.443C3466.73 898.58 3418.22 866.034 3407.91 815.895ZM3536.49 967.498C3535.13 966.936 3533.64 966.793 3532.21 967.087C3530.78 967.381 3529.47 968.1 3528.44 969.152L3513.18 984.816L3496.84 905.325C3511.82 905.492 3526.65 902.444 3540.35 896.382L3556.69 975.874L3536.49 967.498ZM3600.05 917.065C3598.71 917.639 3597.56 918.606 3596.76 919.844C3595.96 921.081 3595.54 922.534 3595.55 924.019L3595.74 946.124L3560.88 922.738L3553.97 889.1C3560.1 885.209 3565.81 880.688 3571.02 875.606L3620.08 908.524L3600.05 917.065Z" fill="white"/>
<path d="M3524.16 831.053C3529.8 832.9 3535.39 826.688 3533.07 821.143L3525.1 800.275L3537.28 781.762C3540.72 776.893 3536.59 769.545 3530.69 770.043L3508.73 771.159L3495.08 753.559C3491.56 748.703 3483.43 750.375 3482.11 756.225L3476.5 777.783L3455.88 785.419C3450.27 787.29 3449.37 795.666 3454.45 798.786L3472.95 810.993L3473.86 833.312C3473.91 839.325 3481.48 842.83 3485.95 838.908L3502.98 824.895L3524.16 831.053ZM3488.05 817.755L3487.59 806.568C3487.54 805.363 3487.21 804.185 3486.62 803.134C3486.03 802.084 3485.2 801.191 3484.2 800.531L3474.93 794.413L3485.26 790.585C3486.38 790.172 3487.38 789.493 3488.18 788.605C3488.97 787.716 3489.55 786.644 3489.85 785.48L3492.66 774.675L3499.5 783.497C3500.24 784.447 3501.19 785.206 3502.27 785.707C3503.36 786.209 3504.54 786.439 3505.73 786.379L3516.74 785.82L3510.63 795.102C3509.97 796.102 3509.56 797.249 3509.43 798.448C3509.31 799.646 3509.46 800.86 3509.89 801.987L3513.89 812.446L3503.27 809.358C3502.13 809.025 3500.92 808.976 3499.76 809.216C3498.6 809.455 3497.51 809.975 3496.59 810.732L3488.05 817.755Z" fill="white"/>
</g>
<defs>
<clipPath id="clip0">
<rect width="315.888" height="321.152" fill="white" transform="translate(3303 722.599) rotate(-11.615)"/>
</clipPath>
</defs>
</svg>
